X: 79
T:Gan Ainm
M:4/4
L:1/8
R:Reel
D:Session tape - Belfast
Z:Bernie Stocks
H:Cloreen Park Session. Hard to make this one out; the second part would seem
H:to be of seven bars only
K:D %i.e. Em
FE~E2 FEDE | FE~E2 d2BA | FE~E2 FED2 | Beec dBAF:| efed Bdef | gfed Bee2 |\
efed B2AB | dAFA Beed | efed Bdef | gfef gbaf | gfed Bdce | dBAG ||
<end>
<start>
